icons/memcached/memcached-original.svg

<svg xmlns="http://www.w3.org/2000/svg" xmlns:xlink="http://www.w3.org/1999/xlink" width="128px" height="128px" viewBox="0 0 128 128" version="1.1">
<defs>
<linearGradient id="linear0" gradientUnits="userSpaceOnUse" x1="255.894" y1="59.789" x2="255.894" y2="-452" gradientTransform="matrix(0.250104,0,0,0.250104,0.000002,113.046984)">
<stop offset="0" style="stop-color:rgb(34.117647%,29.803922%,29.019608%);stop-opacity:1;"/>
<stop offset="1" style="stop-color:rgb(50.196078%,44.313725%,42.745098%);stop-opacity:1;"/>
</linearGradient>
<linearGradient id="linear1" gradientUnits="userSpaceOnUse" x1="380.442" y1="-51.758" x2="191.971" y2="-382.305" gradientTransform="matrix(0.250104,0,0,0.250104,0.000002,113.046984)">
<stop offset="0" style="stop-color:rgb(14.901961%,55.294118%,51.372549%);stop-opacity:1;"/>
<stop offset="1" style="stop-color:rgb(18.039216%,63.137255%,61.960784%);stop-opacity:1;"/>
</linearGradient>
<radialGradient id="radial0" gradientUnits="userSpaceOnUse" cx="62.417" cy="142.923" fx="62.417" fy="142.923" r="9.213" gradientTransform="matrix(0.50521,0,0,0.50521,23.142125,23.804875)">
<stop offset="0" style="stop-color:rgb(85.882353%,48.627451%,48.627451%);stop-opacity:1;"/>
<stop offset="1" style="stop-color:rgb(78.431373%,21.568627%,21.568627%);stop-opacity:1;"/>
</radialGradient>
<radialGradient id="radial1" gradientUnits="userSpaceOnUse" cx="96.726" cy="142.923" fx="96.726" fy="142.923" r="9.213" gradientTransform="matrix(0.50521,0,0,0.50521,23.142125,23.804875)">
<stop offset="0" style="stop-color:rgb(85.882353%,48.627451%,48.627451%);stop-opacity:1;"/>
<stop offset="1" style="stop-color:rgb(78.431373%,21.568627%,21.568627%);stop-opacity:1;"/>
</radialGradient>
<filter id="alpha" filterUnits="objectBoundingBox" x="0%" y="0%" width="100%" height="100%">
  <feColorMatrix type="matrix" in="SourceGraphic" values="0 0 0 0 1 0 0 0 0 1 0 0 0 0 1 0 0 0 1 0"/>
</filter>
<mask id="mask0">
  <g filter="url(#alpha)">
<rect x="0" y="0" width="128" height="128" style="fill:rgb(0%,0%,0%);fill-opacity:0.101961;stroke:none;"/>
  </g>
</mask>
<clipPath id="clip1">
  <rect x="0" y="0" width="128" height="128"/>
</clipPath>
<g id="surface5" clip-path="url(#clip1)">
<path style=" stroke:none;fill-rule:nonzero;fill:rgb(0%,0%,0%);fill-opacity:1;" d="M 99.457031 25.453125 C 102.296875 44.664062 102.957031 63.101562 102.910156 76.835938 C 102.855469 90.882812 102.050781 100.011719 102.050781 100.011719 L 85.492188 100.011719 L 83.714844 101.34375 L 103.382812 101.34375 C 103.382812 101.34375 106.675781 64.011719 100.382812 24.136719 Z M 47.34375 24.96875 C 52.507812 30.714844 61.449219 45.96875 62.671875 45.96875 C 59.398438 41.78125 51.351562 28.414062 47.34375 24.96875 Z M 39.96875 44.425781 C 34.382812 44.578125 41.097656 90.054688 42.96875 100.011719 L 25.800781 100.011719 L 24.636719 101.34375 L 44.300781 101.34375 C 42.441406 91.441406 35.785156 46.367188 41.21875 45.761719 C 40.714844 45 40.273438 44.476562 39.96875 44.425781 Z M 85.386719 44.425781 C 82.394531 44.902344 68.722656 83.011719 68.722656 83.011719 C 68.722656 83.011719 65.710938 82.636719 62.679688 82.636719 C 60.886719 82.636719 59.34375 82.746094 58.300781 82.84375 L 57.976562 84.34375 C 57.976562 84.34375 60.984375 83.96875 64.015625 83.96875 C 67.046875 83.96875 70.058594 84.34375 70.058594 84.34375 C 70.058594 84.34375 83.628906 46.484375 86.683594 45.761719 C 86.355469 44.925781 85.949219 44.441406 85.390625 44.425781 Z M 85.386719 44.425781 "/>
</g>
<mask id="mask1">
  <g filter="url(#alpha)">
<rect x="0" y="0" width="128" height="128" style="fill:rgb(0%,0%,0%);fill-opacity:0.301961;stroke:none;"/>
  </g>
</mask>
<clipPath id="clip2">
  <rect x="0" y="0" width="128" height="128"/>
</clipPath>
<g id="surface8" clip-path="url(#clip2)">
<path style=" stroke:none;fill-rule:nonzero;fill:rgb(100%,100%,100%);fill-opacity:1;" d="M 27.636719 24.136719 C 21.34375 64.011719 24.632812 101.34375 24.632812 101.34375 L 25.792969 100.039062 C 25.199219 91.230469 23.617188 59.378906 28.96875 25.46875 L 47.175781 25.46875 C 47.558594 25.472656 48.074219 25.785156 48.675781 26.300781 C 47.484375 24.972656 46.492188 24.140625 45.84375 24.132812 Z M 82.179688 24.136719 C 78.710938 24.175781 65.527344 47.300781 64.011719 47.300781 C 64.628906 48.09375 65.132812 48.636719 65.34375 48.636719 C 66.859375 48.636719 80.046875 25.511719 83.511719 25.472656 L 99.582031 25.472656 L 100.386719 24.136719 Z M 42.554688 47.09375 C 46.976562 53.738281 57.96875 84.34375 57.96875 84.34375 L 58.292969 82.851562 C 55.578125 75.410156 45.234375 47.507812 42.636719 47.09375 C 42.609375 47.09375 42.582031 47.089844 42.554688 47.09375 Z M 88.054688 47.09375 C 91.019531 54.660156 85.402344 92.386719 83.71875 101.339844 L 85.503906 99.949219 C 87.785156 86.589844 93.265625 47.230469 88.054688 47.09375 Z M 88.054688 47.09375 "/>
</g>
</defs>
<g id="surface1">
<path style=" stroke:none;fill-rule:nonzero;fill:url(#linear0);" d="M 0 86.488281 L 0 41.511719 C 0 5.1875 5.183594 0 41.472656 0 L 86.53125 0 C 122.816406 0 127.996094 5.1875 127.996094 41.511719 L 127.996094 86.488281 C 127.996094 122.8125 122.8125 128 86.527344 128 L 41.46875 128 C 5.183594 128 0 122.8125 0 86.488281 Z M 0 86.488281 "/>
<path style=" stroke:none;fill-rule:nonzero;fill:url(#linear1);" d="M 27.632812 24.136719 C 21.34375 64.011719 24.632812 101.34375 24.632812 101.34375 L 44.300781 101.34375 C 42.429688 91.386719 35.714844 45.910156 41.300781 45.757812 C 44.292969 46.234375 57.96875 84.34375 57.96875 84.34375 C 57.96875 84.34375 60.980469 83.964844 64.007812 83.964844 C 67.039062 83.964844 70.050781 84.34375 70.050781 84.34375 C 70.050781 84.34375 83.726562 46.234375 86.71875 45.757812 C 92.304688 45.910156 85.589844 91.386719 83.722656 101.34375 L 103.386719 101.34375 C 103.386719 101.34375 106.679688 64.007812 100.386719 24.132812 L 82.179688 24.132812 C 78.714844 24.175781 65.527344 47.300781 64.011719 47.300781 C 62.496094 47.300781 49.308594 24.175781 45.84375 24.136719 Z M 27.632812 24.136719 "/>
<path style=" stroke:none;fill-rule:nonzero;fill:url(#radial0);" d="M 60.128906 96.691406 C 60.128906 99.261719 58.046875 101.34375 55.476562 101.34375 C 52.90625 101.34375 50.824219 99.257812 50.824219 96.691406 C 50.824219 94.121094 52.90625 92.035156 55.476562 92.035156 C 58.042969 92.035156 60.128906 94.117188 60.128906 96.691406 Z M 60.128906 96.691406 "/>
<path style=" stroke:none;fill-rule:nonzero;fill:url(#radial1);" d="M 77.195312 96.691406 C 77.195312 99.261719 75.113281 101.34375 72.546875 101.34375 C 69.976562 101.34375 67.894531 99.257812 67.894531 96.691406 C 67.894531 94.121094 69.972656 92.035156 72.546875 92.035156 C 75.117188 92.035156 77.199219 94.117188 77.199219 96.691406 Z M 77.195312 96.691406 "/>
<use xlink:href="#surface5" mask="url(#mask0)"/>
<use xlink:href="#surface8" mask="url(#mask1)"/>
</g>
</svg>

<svg xmlns="http://www.w3.org/2000/svg" xmlns:xlink="http://www.w3.org/1999/xlink" viewBox="0 0 128 128"><defs><radialGradient id="f" cx="62.417" cy="142.923" r="9.213" fx="62.417" fy="142.923" gradientTransform="matrix(.50523 0 0 .50521 23.143 23.805)" gradientUnits="userSpaceOnUse"><stop offset="0" stop-color="#db7c7c"/><stop offset="1" stop-color="#c83737"/></radialGradient><radialGradient id="g" cx="96.726" cy="142.923" r="9.213" fx="96.726" fy="142.923" gradientTransform="matrix(.50523 0 0 .50521 23.143 23.805)" gradientUnits="userSpaceOnUse"><stop offset="0" stop-color="#db7c7c"/><stop offset="1" stop-color="#c83737"/></radialGradient><linearGradient id="d" x1="255.894" x2="255.894" y1="59.789" y2="-452" gradientTransform="translate(0 113.047)scale(.25011)" gradientUnits="userSpaceOnUse"><stop offset="0" stop-color="#574c4a"/><stop offset="1" stop-color="#80716d"/></linearGradient><linearGradient id="e" x1="380.442" x2="191.971" y1="-51.758" y2="-382.305" gradientTransform="translate(0 113.047)scale(.25011)" gradientUnits="userSpaceOnUse"><stop offset="0" stop-color="#268d83"/><stop offset="1" stop-color="#2ea19e"/></linearGradient><clipPath id="b"><path d="M0 0h128v128H0z"/></clipPath><clipPath id="c"><path d="M0 0h128v128H0z"/></clipPath><mask id="i"><g filter="url(#a)"><path fill-opacity=".102" d="M0 0h128v128H0z"/></g></mask><mask id="k"><g filter="url(#a)"><path fill-opacity=".302" d="M0 0h128v128H0z"/></g></mask><g id="h" clip-path="url(#b)"><path d="M99.457 25.453c2.84 19.211 3.5 37.649 3.453 51.383-.055 14.047-.86 23.176-.86 23.176H85.493l-1.777 1.332h19.668s3.293-37.332-3-77.207Zm-52.113-.484c5.164 5.746 14.105 21 15.328 21-3.274-4.188-11.32-17.555-15.328-21m-7.375 19.457c-5.586.152 1.129 45.629 3 55.586H25.8l-1.164 1.332H44.3c-1.86-9.903-8.516-54.977-3.082-55.582-.504-.762-.946-1.285-1.25-1.336Zm45.418 0c-2.992.476-16.664 38.586-16.664 38.586s-3.012-.375-6.043-.375c-1.793 0-3.336.11-4.38.207l-.323 1.5s3.007-.375 6.039-.375c3.03 0 6.043.375 6.043.375s13.57-37.86 16.625-38.582c-.329-.836-.735-1.32-1.293-1.336Zm0 0"/></g><g id="j" clip-path="url(#c)"><path fill="#fff" d="M27.637 24.137c-6.293 39.875-3.004 77.207-3.004 77.207l1.16-1.305c-.594-8.809-2.176-40.66 3.176-74.57h18.207c.383.004.898.316 1.5.832-1.192-1.328-2.184-2.16-2.832-2.168Zm54.543 0C78.71 24.176 65.527 47.3 64.012 47.3c.617.793 1.12 1.336 1.332 1.336 1.515 0 14.703-23.125 18.168-23.164h16.07l.805-1.336ZM42.555 47.094c4.422 6.644 15.414 37.25 15.414 37.25l.324-1.492c-2.715-7.442-13.059-35.344-15.656-35.758-.028 0-.055-.004-.082 0m45.5 0c2.965 7.566-2.653 45.293-4.336 54.246l1.785-1.39c2.281-13.36 7.762-52.72 2.55-52.856Zm0 0"/></g><filter id="a" width="1" height="1" x="0" y="0" filterUnits="objectBoundingBox"><feColorMatrix in="SourceGraphic" values="0 0 0 0 1 0 0 0 0 1 0 0 0 0 1 0 0 0 1 0"/></filter></defs><path fill="url(#d)" d="M0 86.488V41.512C0 5.187 5.184 0 41.474 0h45.06C122.82 0 128 5.188 128 41.512v44.976C128 122.813 122.816 128 86.53 128H41.47C5.184 128 0 122.812 0 86.488m0 0"/><path fill="url(#e)" d="M27.634 24.137c-6.29 39.875-3 77.207-3 77.207h19.668c-1.871-9.957-8.586-55.434-3-55.586 2.992.476 16.669 38.586 16.669 38.586s3.011-.38 6.039-.38c3.031 0 6.043.38 6.043.38s13.676-38.11 16.668-38.586c5.587.152-1.129 45.629-2.996 55.586h19.665s3.293-37.336-3-77.211H82.182C78.717 24.176 65.53 47.3 64.014 47.3S49.31 24.175 45.845 24.136zm0 0"/><path fill="url(#f)" d="M60.13 96.691a4.65 4.65 0 0 1-4.652 4.653 4.654 4.654 0 0 1 0-9.309 4.655 4.655 0 0 1 4.653 4.656zm0 0"/><path fill="url(#g)" d="M77.198 96.691a4.65 4.65 0 1 1-9.301 0 4.652 4.652 0 1 1 9.305 0zm0 0"/><use xlink:href="#h" mask="url(#i)" transform="scale(1.00003 1)"/><use xlink:href="#j" mask="url(#k)" transform="scale(1.00003 1)"/></svg>
